X:1
T:Anglais e Per Nilsson Dahlberg
C:Per Nilsson Dahlberg
R:Anglais
Z:Patrik Mnsson, 2008-10-23
O:Nym, SKne
S:Svenska Ltar
M:2/4
L:1/16
K:Bb
N:En variant av melodien har upptecknats som brnnvinspolska i Stora Herrestad. Jfr Nils Andersson, Sknska Melodier, n:r 66 (SvL Skne nr. 172)
|: .F(BA).B b(BA).B | .d(BA).B .b(BA).B | .F(BA).B .b(BA).B | .e(cA)c B2 z2 :|
|: g2(3bbb b2a2 | !trill!g2f2 e2d2 | !trill!c2B2 A2g2 | .f(ed)c B2 z2 :|
